packages/icons/src/__generated__/nav/svg/nav-developerAPIProduct-12-active.svg

<svg xmlns="http://www.w3.org/2000/svg" fill="#1652F0" viewBox="0 0 12 12"><path d="M6.739 2.995v-2h4.25v4.25H8.992v1.5h1.997v4.25h-4.25v-2h-1.5v2H.989v-4.25h2.003v-1.5H.99V.995h4.25v2h1.5Zm1.2-.8v.8h1.053v1.05h.797v-1.85h-1.85Zm-3.9.8v-.8h-1.85v1.85h.803v-1.05H4.04Zm-1.047 4.95H2.19v1.85h1.85v-.8H2.992v-1.05Zm4.947 1.05v.8h1.85v-1.85h-.797v1.05H7.94Z"/></svg>

<svg xmlns="http://www.w3.org/2000/svg" fill="#1652F0" viewBox="0 0 12 12"><path d="M6.746 3V1h4.25v4.25H9v1.5h1.996V11h-4.25V9h-1.5v2H.996V6.75H3v-1.5H.996V1h4.25v2h1.5Zm1.2-.8V3H9v1.05h.796V2.2h-1.85Zm-3.9.8v-.8h-1.85v1.85H3V3h1.046ZM3 7.95h-.804V9.8h1.85V9H3V7.95ZM7.946 9v.8h1.85V7.95H9V9H7.946Z"/></svg>
